imgs/NorwayFlag.svg

<svg width="25" height="18" viewBox="0 0 25 18" fill="none" xmlns="http://www.w3.org/2000/svg">
<path d="M0.00292969 0H24.0029V18H0.00292969V0Z" fill="#ED2939"/>
<path d="M7.00293 0H11.0029V18H7.00293V0Z" fill="white"/>
<path d="M0.00292969 7H24.0029V11H0.00292969V7Z" fill="white"/>
<path d="M8.00293 0H10.0029V18H8.00293V0Z" fill="#002664"/>
<path d="M0.00292969 8H24.0029V10H0.00292969V8Z" fill="#002664"/>
</svg>

<svg width="25" height="18" fill="none" xmlns="http://www.w3.org/2000/svg"><path d="M.003 0h24v18h-24V0z" fill="#ED2939"/><path d="M7.003 0h4v18h-4V0z" fill="#fff"/><path d="M.003 7h24v4h-24V7z" fill="#fff"/><path d="M8.003 0h2v18h-2V0z" fill="#002664"/><path d="M.003 8h24v2h-24V8z" fill="#002664"/></svg>
